!!!COM: Bach, Johann Sebastian
!!!CDT: 1685/3//-1750/7/28/
!!!OTL@@DE: Erstanden ist der heil'ge Christ
!!!AGN: 4-Part Chorale
!!!SCT: BH 176
!!!SCT: BWV 306
**harm	**root	**kern	**kern	**kern	**kern
!	!	!bass	!tenor	!alto	!soprno
*	*Iorgan	*Iorgan	*Iorgan	*Iorgan	*Iorgan
*M3/4	*M3/4	*M3/4	*M3/4	*M3/4	*M3/4
*MM60	*MM60	*MM60	*MM60	*MM60	*MM60
*k[b-e-a-]	*k[b-e-a-]	*k[b-e-a-]	*k[b-e-a-]	*k[b-e-a-]	*k[b-e-a-]
*E-:	*E-:	*E-:	*E-:	*E-:	*E-:
I	4FF	4EE-	4G	4B-	4e-
=1	=1	=1	=1	=1	=1
I	4.FF	4.E-	8G	4B-	4.e-
.	.	.	8A-	.	.
.	.	.	8G	8c	.
vii	8EE	8D	8F	8d	8f
vi	4DD	4C	4E-	[4e-	8g
.	.	.	.	.	8a-
=2	=2	=2	=2	=2	=2
V	2CC	4.BB-	2F	4e-]	2b-
.	.	.	.	8d	.
.	.	8C	.	8e-	.
Vb	4CC	8D	4B-	[4f	4f
.	.	8BB-	.	.	.
=3	=3	=3	=3	=3	=3
I	2FF	4.E-	2B-	8f]	2g
.	.	.	.	8d	.
.	.	.	.	[2e-	.
.	.	8D	.	.	.
viib/V	4BB	4C	4c	.	4a
=4	=4	=4	=4	=4	=4
V;	2CC;	2BB-;	2F;	4e-]	2b-;
.	.	.	.	4d;	.
V7b	4CC	4D	4B-	[4f	4a-y
=5	=5	=5	=5	=5	=5
I	4FF	4.E-	8B-	4f]	4.g
.	.	.	8G	.	.
vib	4DD	.	2c	2e-	.
.	.	8D	.	.	8f
vi	4DD	4C	.	.	8g
.	.	.	.	.	8a-
=6	=6	=6	=6	=6	=6
Vb	4CC	4.D	8B-	8f	2b-
.	.	.	8c	8e-	.
Vb	8CC	.	4d	8f	.
vii7/ii	8FF#	8E	.	[8g	.
ii	4GG	4F	4c	8g]	4a-
.	.	.	.	[8f	.
=7	=7	=7	=7	=7	=7
vi	4DD	4.C	4c	8f]	2g
.	.	.	.	16e-	.
.	.	.	.	16d	.
vi	4DD	.	4G	[4e-	.
.	.	8BB-	.	.	.
v7c/III	4EE	4AA-	4C	8e-]	4f
.	.	.	.	16d	.
.	.	.	.	16c	.
!!linebreak: 2
=8	=8	=8	=8	=8	=8
III;	2AA;	2GG;	2D;	2B;	2g;
vi	4DD	4C	4E-	4c	4g
=9	=9	=9	=9	=9	=9
iii	4AA	8G	4G	4.d	2b-
.	.	8GG	.	.	.
iii	4AA	8G	[2B-	.	.
.	.	8F	.	8e-	.
V7b	4CC	8E-	.	[4f	4a-
.	.	8D	.	.	.
=10	=10	=10	=10	=10	=10
I	4FF	8E-	8B-]	4f]	2g
.	.	8EE-	8G	.	.
vib	4DD	8E-	8c	4e-	.
.	.	8D	8B-	.	.
viioD7/vi	4CC#	8C	4A-	[4d	4f
.	.	8BB	.	.	.
=11	=11	=11	=11	=11	=11
vi	4DD	4C	8G	4d]	2e-
.	.	.	8E-	.	.
IV	4BB-	4AA-	8A-	4c	.
.	.	.	8G	.	.
V	4CC	4BB-	4F	8B-	4d
.	.	.	.	8A-	.
=12	=12	=12	=12	=12	=12
vi;	2DD;	2C;	2E-;	2G;	2e-;
vi	4DD	8C	4G	4c	4e-
.	.	8BB-	.	.	.
=13	=13	=13	=13	=13	=13
iib	4GG	4.AA-	4F	4c	8f
.	.	.	.	.	8e-
V7d	8CC	.	4B-	8d	8f
Ib	8FF	8GG	.	8e-	8g
!!!ONB1: in beat 3 of measure 13, the tenor pitch is 'd' in
!!!ONB2: Breitkof & Haertel editions, but is 'B-' in the
!!!ONB3: Bach Compendium index incipit.
ii	4GG	4FF	8A-	8c	4a-
.	.	.	8F	8d	.
=14	=14	=14	=14	=14	=14
I	4FF	8EE-	8G	2e-	2g
.	.	8FF	8A-	.	.
Ib	4FF	8GG	[4B-	.	.
.	.	8AA-	.	.	.
V	4CC	4BB-	8B-]	[4d	4f
.	.	.	8A-	.	.
=15	=15	=15	=15	=15	=15
vi	4DD	8C	4G	4d]	2e-
.	.	8BB-	.	.	.
IV	4BB-	4AA-	8A-	4c	.
.	.	.	8G	.	.
V7	4CC	4BB-	8F	4B-	4d
.	.	.	8A-	.	.
=16	=16	=16	=16	=16	=16
I;	2FF;	2EE-;	2G;	2B-;	2e-;
==	==	==	==	==	==
*-	*-	*-	*-	*-	*-
!!chor2scor: -l 2 -s 0.6 -o %b.pmx
!!!YEC: Copyright 1994, David Huron
!!!YEC: Changes/Additions 2001 by Craig Stuart Sapp
!!!YEN: United States of America
!!!SMA: 371 Bach Chorales, edited by Ludwig Erk, C.F. Peters
!!!PDT: 1850, 1865
!!!ONB: Harmony and Root analysis done manually
